X:1
T:Title
%%score 1 2 3 4
L:1/8
M:3/4
K:C
V:1 treble nm="Church Organ, Soprano"
V:2 treble nm="French Horn, Alto"
V:3 bass nm="Trombone, Tenor"
V:4 bass nm="Tuba, Bass"
V:1
 B2 c2 B2 | A2 c4 | e2 d4 | c2 B4 | c2 d4 | B2 c2 B2 | A2 G4 | F2 E2 A2 | G2 F2 E2- | E2 D4 | %10
w: By~Harmonized~by~Charles~Wood * *||||||||||
 D2 E2 E2 | F2 G2 A2 | B2 c4 | B2 A4 | G2 E2 F2- | F2 E4 | D2 E4- | E2 E4 |] %18
w: ||||||||
V:2
 E2 E2 D2 | E2 F4 | G2 F4 | E2 E4 | E2 D4 | D2 E4 | F2 C4 | C2 C2 E2 | E2 C2 C2- | C2[K:bass] B,4 | %10
w: Our~ La *|dy~ sat~|with in~|her~ bow�r,~|And~ sweet|ly~ sang~|from~ hour~|to~ hour,~ *|La lul la|* lu:~|
 B,2 C2 B,2 | D2[K:treble] D2 F2 | F2 E4 | E2 E4 | E2 C2 D2- | D2[K:bass] G,4 | A,2 B,4- | %17
w: Ho!~ Rest~ thee,~|my~ Bairn,~ and~|my~ God~|there to;~|La lul la,~|* Babe~|Je su!~|
 B,2 B,4 |] %18
w: |
V:3
 B,2 A,2 B,2 | C2 A,4 | C2 A,4 | A,2 ^G,4 | A,2 A,4 | G,2 G,4 | F,2 G,4 | A,2 G,2 C2 | %8
 B,2 A,2 G,2- | G,2 G,4 | G,2 G,2 G,2 | A,2 B,2 C2 | D2 A,4 | ^G,2 A,2 C2 | B,2 A,2 A,2 | %15
 B,2 C2 B,2 | A,2 ^G,4- | G,2 ^G,4 |] %18
V:4
 E,2 A,,4 | A,2 F,4 | C,2 D,4 | A,,2 E,4 | A,2 ^F,4 | G,2 C,4 | D,2 E,4 | F,2 C,2 A,,2 | %8
 E,2 F,2 C,2- | C,2 G,,4 | G,2 C,2 E,2 | D,2 G,2 F,2 | D,2 C,2 B,,2 | E,2 A,4 | E,2 A,2 D,2- | %15
 D,2 C,4 | F,2 E,4- | E,2 E,4 |] %18

